X: 4604
T: Bourée Entre La Sacoche Et La Valise
R: polka
M: 2/4
K: Aminor
A>B cd|eA ce|f>e dc|BcdB|
A>B cd|eA ce|a g2 a|e2 e2:|
|:d e2 f|ec A2|cB cd|c2 BA|
d e2 f|ec A2|GA/B/ cB|A2 A2:|

